symbols/web/label_off/materialsymbolsoutlined/label_off_wght300fill1_40px.svg

<svg xmlns="http://www.w3.org/2000/svg" height="40" width="40"><path d="M29.208 26.708 11.625 9.167h12.833q.959 0 1.709.416.75.417 1.291 1.209l6.5 9.208Zm2.834 10L25.833 30.5q-.166.167-.583.25-.417.083-.792.083h-16q-1.083 0-1.854-.771-.771-.77-.771-1.854V12.167q0-.417.105-.729.104-.313.229-.605L2.958 7.625l1.5-1.458L33.5 35.208Z"/></svg>

<svg xmlns="http://www.w3.org/2000/svg" height="40" width="40"><path d="M29.208 26.708 11.625 9.167H24.458Q25.417 9.167 26.167 9.583Q26.917 10 27.458 10.792L33.958 20ZM32.042 36.708 25.833 30.5Q25.667 30.667 25.25 30.75Q24.833 30.833 24.458 30.833H8.458Q7.375 30.833 6.604 30.062Q5.833 29.292 5.833 28.208V12.167Q5.833 11.75 5.938 11.438Q6.042 11.125 6.167 10.833L2.958 7.625L4.458 6.167L33.5 35.208Z"/></svg>
